src/assets/flags/pa.svg

<?xml version="1.0" encoding="UTF-8"?>
<svg xmlns="http://www.w3.org/2000/svg" xmlns:xlink="http://www.w3.org/1999/xlink" width="25px" height="px" viewBox="0 0 25 19" version="1.1">
<g id="surface1">
<rect x="0" y="0" width="25" height="19" style="fill:rgb(100%,100%,100%);fill-opacity:1;stroke:none;"/>
<path style=" stroke:none;fill-rule:evenodd;fill:rgb(100%,100%,100%);fill-opacity:1;" d="M 3.613281 0 L 22.253906 0 L 22.253906 19 L 3.609375 19 Z M 3.613281 0 "/>
<path style=" stroke:none;fill-rule:evenodd;fill:rgb(85.882354%,0%,0%);fill-opacity:1;" d="M 12.617188 0.140625 L 26.601562 0.140625 L 26.601562 8.917969 L 12.617188 8.917969 Z M 12.617188 0.140625 "/>
<path style=" stroke:none;fill-rule:evenodd;fill:rgb(0%,0%,67.058825%);fill-opacity:1;" d="M 0.125 8.917969 L 12.621094 8.917969 L 12.621094 19 L 0.125 19 Z M 8.390625 7.035156 L 6.75 5.871094 L 5.121094 7.042969 L 5.726562 5.140625 L 4.101562 3.957031 L 6.117188 3.941406 L 6.742188 2.042969 L 7.378906 3.9375 L 9.394531 3.9375 L 7.773438 5.125 L 8.394531 7.027344 Z M 8.390625 7.035156 "/>
<path style=" stroke:none;fill-rule:evenodd;fill:rgb(84.705883%,0%,0%);fill-opacity:1;" d="M 20.191406 16.382812 L 18.535156 15.285156 L 16.890625 16.394531 L 17.5 14.589844 L 15.859375 13.480469 L 17.890625 13.460938 L 18.523438 11.664062 L 19.164062 13.457031 L 21.195312 13.457031 L 19.5625 14.585938 L 20.1875 16.382812 Z M 20.191406 16.382812 "/>
</g>
</svg>

<svg xmlns="http://www.w3.org/2000/svg" width="25" height="px" viewBox="0 0 25 19"><path d="M0 0h25v19H0z" style="fill:#fff;fill-opacity:1;stroke:none"/><path d="M3.613 0h18.64v19H3.61Zm0 0" style="stroke:none;fill-rule:evenodd;fill:#fff;fill-opacity:1"/><path d="M12.617.14h13.985v8.778H12.617Zm0 0" style="stroke:none;fill-rule:evenodd;fill:#db0000;fill-opacity:1"/><path d="M.125 8.918h12.496V19H.125Zm8.266-1.883L6.75 5.871 5.121 7.043l.606-1.902-1.625-1.184 2.015-.016.625-1.898.637 1.894h2.016L7.773 5.126l.622 1.902Zm0 0" style="stroke:none;fill-rule:evenodd;fill:#0000ab;fill-opacity:1"/><path d="m20.191 16.383-1.656-1.098-1.644 1.11.609-1.805-1.64-1.11 2.03-.02.633-1.796.641 1.793h2.031l-1.633 1.129.625 1.797Zm0 0" style="stroke:none;fill-rule:evenodd;fill:#d80000;fill-opacity:1"/></svg>
